X:2
T:The Barren Rocks of Aden
C:from the Knots of May repertoire
Q:1/4=180
I:abc2nwc
M:4/4
L:1/8
K:D
A2d2|:e2|f3g f2e2|d2f2A3d|c2e2A2de|f2A2d2e2|
f3g f2e2|d2f2A3d|c2e2A2fe|d6:|
|:fg|a3f d2f2|e2g2A4|g3e c2e2|defg a2fg|
a3f d2f2|e2g2A4|g3e c2e2|d6:|


